X: 7679
T: Coleraine, The
R: jig
M: 6/8
K: Bminor
FBB Bcd|cff f2 e|dBB Bcd|cAF F2 E|
FBB Bcd|cff f2 e|dcB ^ABc|B3- B2:|
dcd dcB|Aaa a2 ^a|bfe dcB|^ABc F2 F|
B^AB cBc|def gfe|dcB ^ABc|B3- B2:|

